X:1
T:Title
%%score { ( 1 3 ) | 2 }
L:1/8
Q:1/4=100
M:6/8
K:A
V:1 treble nm="Grand Piano"
V:3 treble 
V:2 bass 
V:1
 [CE][DF][CE] [CE][DF][CE] | [Ec][DB][CA] [CE]3 | EFE EGA | B6 | [Ec][Fd][Ec] [Ec][EB][EA] | %5
w: P.~P.Bilhorn * * * * *|||||
[M:7/8] [FB][FA][DF] [Fd]3 F |[M:3/4] E^D Ec/c/- cB | [CA]6 | [Fd]>[Fd] [Fd][Fd]/[DF]/- [DF][Fd] | %9
w: ||||
 c<c c E3 | G>G GG AB | c6 | [Fd]<[Fd] [Fd][Fd] [DF][Fd] | cc c E3 |[M:13/16] GABc<c z/ B | %15
w: ||||||
[M:3/4] A6 |] %16
w: |
V:2
 [A,,A,][A,,A,][A,,A,] [A,,A,][A,,A,][A,,A,] | [A,,A,][A,,A,][A,,A,] [A,,A,]3 | %2
 [E,G,D][E,G,D][E,G,D] [E,A,C][E,B,D][E,A,C] | [E,G,D]6 | %4
 [A,,A,][A,,A,][A,,A,] [A,,A,][B,,G,][C,A,] |[M:7/8] [D,A,][D,A,][D,A,] [D,A,]3 [^D,A,=C] | %6
[M:3/4] [E,A,C][F,A,=C] [E,A,^C][E,A,E]/[E,A,E]/- [E,A,E][E,A,D] | [A,,E,A,]6 | %8
 [D,A,]>[D,A,] [D,A,][D,A,]/[D,A,]/- [D,A,][D,A,] | [A,E]<[A,E] [A,E] [A,C]3 | %10
 [E,B,D]>[E,B,D] [E,B,D][E,B,D] [E,A,C][E,G,E] | [A,,A,]2 A, .A,3 | %12
 [D,A,]<[D,A,] [D,A,][D,A,] [D,A,][D,A,] | [A,E][A,E] [A,E] [A,C]3 | %14
[M:13/16] [E,B,D][E,A,C][E,G,D][E,A,E]<[E,A,E] z/ [E,G,D] |[M:3/4] [E,A,C]6 |] %16
V:3
 x6 | x6 | x6 | x6 | x6 |[M:7/8] x7 |[M:3/4] x6 | x6 | x6 | x6 | x6 | E2 E .E3 | x6 | x6 | %14
[M:13/16] x13/2 |[M:3/4] x6 |] %16

